X:79
T:Rock of Ages
% Four-part piano arrangement for standard notation.
C:Augustus M. Toplady/Thomas Hastings
S:Source "The One Hundred and One Best Songs" - The Cable Company - 1919 - Chicago, Illinois
M:3/4
L:1/8
Q:1/4=110
%%staves [(1 2) (3 4)]
K:Bb
V:1 clef=treble
F > G | F2 D2 B > G | F4 B > c | d3 c B A | B4
w:1.~Rock of A-ges, cleft for me, Let me hide my-self in Thee;
w:2.~Could my tears for-ev-er flow, Could my zeal no lan-gour know,
w:3.~While I draw this fleet-ing breath, When my eyes shall close in death,
V:2 clef=treble
D > E | D2 B,2 D > E | D4 F > G | F3 E D C | D4
V:3 clef=bass
%%MIDI transpose -24
%%jsastem=dn
b > b | b2 f2 f > b | b4 b > b | b3 f f f | f4
V:4 clef=bass
%%MIDI transpose -24
%%jsastem=dn
B > B | B2 B2 B > B | B4 d > e | f3 f F F | B4
V:1
A > B | c3 c A F | B4 A > B | c3 c A F | B4
w:Let the wa-ter and the blood, From Thy wound-ed side which flowed,
w:These for sin could not a-tone; Thou must save, and Thou a-lone;
w:When I rise to worlds un-known, And be-hold Thee on Thy throne,
V:2
C > D | E3 E E E | D4 C > D | E3 E E E | D4
V:3
f > b | a3 a c' a | b4 f > b | a3 a c' a | b4
V:4
f > f | f3 f f f | B4 f > f | f3 f f f | B4
V:1
F > G | F2 D2 B > G | F4 B > c | d3 c B A | B4 |]
w:Be of sin the doub-le cure, Save from wrath and make me pure.
w:In my hand no price I bring; Sim-ply to Thy cross I cling.
w:Rock of A-ges, cleft for me, Let me hide my-self in Thee.
V:2
D > E | D2 B,2 D > E | D4 F > G | F3 E D C | D4 |]
V:3
b > b | b2 f2 f > b | b4 b > b | b3 f f f | f4 |]
V:4
B > B | B2 B2 B > B | B4 d > e | f3 f F F | B4 |]

